X:1
T:Greek Hymn, 11.11.11.11
T:Greek Hymn, 11.11.11.11
T:Joseph Perry Holbrook (1822-1888)
T:Public Domain Courtesy of the Cyber Hymnal™
C:Joseph Perry Holbrook (1822-1888)
Z:Public Domain
Z:Courtesy of the Cyber Hymnal™
%%score ( 1 2 ) ( 3 4 )
L:1/8
Q:1/4=115
M:4/4
K:G
V:1 treble 
V:2 treble 
V:3 bass 
V:4 bass 
V:1
 [DG]3 [DF] [CE]2 [DG]2 | [FA]2 [DG]6 | [DB]3 [FA] G2 [GB]2 | [FA]6 z2 | [DG]3 [DF] [CE]2 [DG]2 | %5
 [CA]2 [B,G]6 | [DG]2 [EG]2 G3 z F | [DG]6 z2 | [GB]3 [GB] [Gc]2 [GB]2 | [DG]2 [GB]6 | %10
 [Gd]3 [Fc] [GB]2 G2 | [FA]6 z2 | [Gd]3 [Gd] [Ge]2 [Gd]2 | [GB]2 [Gd]6 | [DG]2 (dc) B3 z A | %15
 [DG]8 |] %16
V:2
 x8 | x8 | x4 G2 x2 | x8 | x8 | x8 | x4 D2 D2 x | x8 | x8 | x8 | x6 G2 | x8 | x8 | x8 | %14
 x2 E2 (DG) F2 x | x8 |] %16
V:3
 [G,,B,]3 [B,,G,] [C,G,]2 [B,,G,]2 | [D,C]2 [G,,B,]6 | [G,D]3 [D,D] [B,,D]2 [G,,D]2 | [D,D]6 z2 | %4
 [G,,B,]3 [B,,G,] [C,G,]2 [B,,G,]2 | [D,F,]2 [G,,G,]6 | [G,,B,]2 [C,G,]2 [B,,G,]2 [A,,C]2 x | %7
 [G,,B,]6 z2 | [G,D]3 [G,D] [G,E]2 [G,D]2 | [G,B,]2 [G,D]6 | [B,D]3 [A,D] [G,D]2 [B,,D]2 | %11
 [D,D]6 z2 | [G,B,]3 [G,B,] [G,C]2 [G,B,]2 | [G,D]2 [G,B,]6 | [B,,G,]2 [C,G,]2 (G,B,) [D,C]2 x | %15
 [G,,G,B,]8 |] %16
V:4
 x8 | x8 | x8 | x8 | x8 | x8 | x9 | x8 | x8 | x8 | x8 | x8 | x8 | x8 | x4 D,2 x3 | x8 |] %16

